X:1
T:[ID 5-7a]
T:[ID 5-7a]
T:Bezeichnung standardisiert: Tantz Tantz
T:Urheber unbekannt Datum in der hier transkribierten schriftlichen Quelle: 1773
C:Urheber unbekannt
C:Datum in der hier transkribierten schriftlichen Quelle: 1773
L:1/8
M:2/4
K:D
V:1 treble 
V:1
 DFAd | fa g2 | fe/d/ cd | e/d/c/B/ A/G/F/E/ | DFAd | fa g2 | fe/d/ ed/c/ | d2 D2 :: A/B/c/d/ eA | %9
 fAfA | A/B/c/d/ eA | fAeg | fe/d/ ed/c/ | d2 D2 :| %14

